X:1
T:O du mein Trost und süßes Hoffen
T:Johann Wolfgang Franck
T:Wilhelm Osterwald
T:O du mein Trost und süßes Hoffen
T:Choral
T:CPDL   —   Creative Commons Attribution Non Commercial 3.0
T:CPDL   —   Creative Commons Attribution Non Commercial 3.0
C:Johann Wolfgang Franck
Z:Wilhelm Osterwald
Z:CPDL   —   Creative Commons Attribution Non Commercial 3.0
%%score [ ( 1 2 ) ( 3 4 ) ]
L:1/8
Q:1/4=88
M:3/4
K:Bb
V:1 treble nm="Sopran\nAlt"
V:2 treble 
V:3 bass nm="Tenor\nBass"
V:4 bass 
V:1
!p!"^Mäßig" B2 |:!<(! d4 cB!<)! |!>(! c4!>)!!<(! d2 | e4!<)! e2 | !>!e2!>(! !breath!d2!>)!!p! B2 | %5
w: 1.    O|du mein *|Trost, mein|sü- ßes|Hof- fen, lass|
w: |Herz und *|See- le|sind dir|of- fen, o|
w: 2.    O|Hei- land, *|stil- le|mein Ver-|lan- gen mit|
w: |De- mut *|will ich|dich emp-|fan- gen, mein|
 G4 c2 | A4 B2 | (B3 c)!>(! A2 |1 !fermata!B4!>)! B2 :|2 !fermata!B4!mf! F2 || B4 B2 | G4 G2 | %12
w: mich nicht|län- ger|mei- * ner|Pein. Mein||||
w: Hei- land,|zie- he|bei * mir||ein! Du|Him- mels-|lust, du|
w: dei- nes|Kom- mens|Se- * lig-|keit; voll||||
w: Herz und|See- le|sind * be-||reit. Mein|Den- ken,|Herr, und|
!<(! c4 c2 | A2!<)! !breath!A2!f! A2 | d4 d2 | G4 A2 | A4!>(! G2 | !fermata!F4!>)!!f! c2 | %18
w: |1.  won- ne, du|Gott und|Mensch, du|Mor- gen-|glanz! Ach|
w: Er- den \-|2.  Sin- nen ganz|dei- nem|teu- ren|Dienst zu|weih'n; o|
w: ||||||
w: all mein||||||
 d4!<(! d2 | B4 B2 | e4!<)! e2 |!>(! c2 !breath!c2!>)!!ff! c2 | f4 d2 | (B3 A) B2 | %24
w: komm, du|teu- re|Gna- den-|son- ne, durch-|leuch- te|mei- * ne|
w: lass mich|dei- nen|Trost ge-|win- nen, o|Je- su,|zie- * he|
w: ||||||
w: ||||||
[Q:1/4=76]"^rit." d4!>(! c2 | !fermata!B4!>)! |] %26
w: See- le|ganz.|
w: bei mir|ein!|
w: ||
w: ||
V:2
 D2 |: F4 =E2 | F4 F2 | (_E2 G2) F2 | F2 F2 F2 | E4 G2 | F4 F2 | G4 F2 |1 F4 F2 :|2 F4 D2 || %10
 (D2 G2) F2 | =E4 E2 | (F2 A2) G2 | ^F2 F2 F2 | G4 G=F | =E4 F2 | (D2 =F2) =E2 | F4 F2 | F4 F2 | %19
 G4 G2 | G4 G2 | A2 A2 F2 | F4 F2 | D4 =E2 | F4 E2 | D4 |] %26
V:3
!p! B,2 |:!<(! B,4 B,2!<)! |!>(! A,4!>)!!<(! B,2 | B,4!<)! C2 | !>!C2!>(! !breath!B,2!>)!!p! B,2 | %5
 B,4 E2 | C4 D2 | C4!>(! C2 |1 !fermata!D4!>)! D2 :|2 !fermata!D4!mf! B,2 || B,4 D2 | C4 C2 | %12
!<(! C4 _E2 | D2!<)! !breath!D2!f! D2 | D4 D2 | C4 C2 | B,4!>(! B,2 | !fermata!A,4!>)!!f! A,2 | %18
 B,4!<(! B,2 | B,4 B,2 | C4!<)! C2 |!>(! C2 !breath!C2!>)!!ff! A,2 | B,4 B,2 | B,4 B,2 | %24
 (B,2 G,2)!>(! A,2 | !fermata!B,4!>)! |] %26
V:4
 B,,2 |: B,4 G,2 | A,4 _A,2 | G,4 =A,2 | B,2 B,,2 D,2 | E,4 C,2 | (F,3 E,) D,2 | E,4 F,2 |1 %8
 B,,4 B,,2 :|2 B,,4 B,2 || G,4 G,,2 | C,4 B,,2 | A,,4 A,,2 | D,2 D,2 C,2 | B,,4 B,,2 | C,4 A,,2 | %16
 B,,4 C,2 | [F,,F,]4 F,2 | B,,4 B,,2 | E,4 E,2 | C,4 C,2 | F,2 F,2 E,2 | D,4 D,2 | G,4 G,2 | %24
 F,4 [F,,F,]2 | B,,4 |] %26

